X:74
T:Jack Austin's Humour
M:2/4
L:1/8
B:Thompson's Compleat Collection of 200 Favourite Country Dances, vol. 1 (London, 1757)
Z:Transcribed and edited by Fynnian Titford-Mock, 2007
Z:abc's:AK/Fiddler's Companion
K:G
d d2 e|dBcA|B2G2|d d2 e|dBcA (G2 G2):|
|:{c}B2 AG|{c}B2 AG|FGAB|A2 D2|{c}B2 AG|{c}B2 AG|FGAF|G2 G2:|

